X:1
T:E minor Stephen Jenks, 1804
T:Isaac Watts, 1719 (Psalm 51, Part 1)    88. 88. (L. M.)
T:Goshen
T:Transcribed from The Hartford Collection, 1807.
%%score [ 1 2 3 4 ]
L:1/8
Q:1/4=100
M:4/4
K:G
V:1 treble nm="Tr." snm="Tr."
V:2 treble nm="C." snm="C."
V:3 treble-8 nm="T." snm="T."
V:4 bass nm="B." snm="B."
V:1
 B4 d2 e2 | d6 B2 | (g3 f e2) d2 | e6 d2 | B2 B2 B2 BA | (G3 c B2) B2 | B8- | B4 z4 | B2 BB e2 BA | %9
w: 1.~O wash my|soul from|eve- * * ry|sin, And|make my guil- ty *|con- * * science|clean;||Here on my heart the *|
w: 2.~My lips with|shame my|sins~ _ _ con-|fess A-|gainst thy law, a- *|gainst~ _ _ thy|grace;||Lord, should thy judg- ment *|
 B2 B2 (G2 (3ABc | B6) B2 | B2 G2 A2 dc | B2 B2 B4- | B4 |] %14
w: bur- den lies,~ _ _ _|_ And|past of- fen- ses *|pain my eyes.||
w: grow se- vere,~ _ _ _|_ I|am con- demned, but *|thou art clear.||
V:2
 E4 D2 G2 | F6 G2 | (B3 A G2) F2 | E6 D2 | G2 G2 G2 ^D2 | E6 F2 | E8- | E4 z4 | z8 | B2 BB B2 F2 | %10
w: |||||||||1.~Here on my heart the|
w: |||||||||2.~Lord, should thy judg- ment|
 G2 E2 B2 B2 | G2 E2 A2 D2 | EG F2 E4- | E4 |] %14
w: bur- den lies, And|past of- fen- ses|pain * my eyes.||
w: grow se- vere, I|am con- demned but|thou * art clear.||
V:3
 B4 A2 G2 | A6 B2 | (e3 f g2) fd | B6 G2 | d2 d2 d2 ef | (B3 A B2) ^d2 | e8- | e4 z4 | z4 B2 Bc | %9
w: 1.~~O wash my|soul from|eve- * * ry *|sin, And|make my guil- ty *|con- * * science|clean;||1.~Here on my|
w: 2.~My lips with|shame my|sins~ _ _ con- *|fess A-|gainst thy law, A- *|gainst~ _ _ thy|grace;||2.~Lord, should thy|
 d2 d2 eg f2 | e6 e2 | d2 B2 c2 BA | GE ^D2 E4- | E4 |] %14
w: heart the bur- * den|lies, And|past of- fen- ses *|pain * my eyes.||
w: judg- ment grow * se-|vere, I|am con- demned but *|thou * art clear.||
V:4
 E,4 F,2 G,2 | D,6 G,2 | E,6 B,,2 | E,6 B,2 | G,2 G,2 G,2 G,F, | E,6 B,,2 | E,8- | E,4 E,2 E,E, | %8
w: |||||||* 1.~Here on my|
w: |||||||* 2.~~Lord, should thy|
 G,2 G,2 E,2 E,2 | (B,,4 E,2 D,2 | %10
w: heart the bur- den|lies,~ _ _|
w: judg- ment grow se-|vere,~ _ _|
"^___________________________________________________________\nEdited by B. C. Johnston, 2016\n   1. Measure 3, \nTreble\n: D# changed to D, as in \nTenor\n.\n   2. Measure 4, Counter: D# changed to D, as in Treble." E,6) E,2 | %11
w: _ And|
w: _ I|
 G,2 B,2 A,2 G,F, | %12
w: past of- fen- ses *|
w: am con- demned but *|
 E,2 B,,2"^Edited by B. C. Johnston, 2016\n   1. Measure 3, Treble: D# changed to D, as in Counter." E,4- | %13
w: pain my eyes.|
w: thou art clear.|
 E,4 |] %14
w: |
w: |

